!!!COM: Music21
!!!OTL: Jota de Poio
!!!OMV: pezas_jotas_jota-de-poio_jota-de-poio-partitura.musicxml
**kern
*I"Bagpipes
*I'Bag
*clefG^2
*k[]
*M3/8
=1
!LO:TX:a:t=Allegro
*MM132
!LO:TX:a:t=[quarter]=132
8r
16ccLL
16b
16cc
16ddJJ
=||
8ee'L
16ccL
16ddJ
[8ee'J
=
8eeL]
16ccL
16dd
16ee
16ffJJ
=
16ggLL
16ff
16aa
16ffJ
[8dd'J
=
8ddL]
16bL
16cc
16dd
16eeJJ
=
8.ff^L
16ddK
[8eeJ
=
16eeLL]
16cc
16dd
16ee
16ff
16ggJJ
!!linebreak:original
=
16ddLL
16cc
16b
16ddJ
[8cc'J
=
8ccL]
16ccL
16b
16cc
16ddJJ
=||
8ee'L
16ccL
16ddJ
[8ee'J
=
8eeL]
16ccL
16dd
16ee
16ffJJ
=
16ggLL
16ff
16aa
16ffJ
[8dd'J
=
8ddL]
16bL
16cc
16dd
16eeJJ
=
8.ff^L
16ddK
[8eeJ
!!linebreak:original
=
16eeLL]
16cc
16dd
16ee
16ff
16ggJJ
=
16ddLL
16cc
16b
16ddJ
8cc'J
=
8cc'L
16eeL
16cc
16ee
16ccJJ
=||
16eeLL
16cc
16cc'
16cc'
16ee
16ccJJ
=
16eeLL
16cc
16ee
16cc
16ee
16ccJJ
=
16ffLL
16dd
16dd'
16dd'
16ff
16ddJJ
!!linebreak:original
=
16dd'LL
16dd'
16ff
16dd
16dd'
16dd'JJ
=
16ffLL
16ee
16dd
16ee
16cc
16ddJJ
=
16eeLL
16ff
16ff
16ee
16dd
16ccJJ
=
8bL
16ggL
16ee
16gg
16eeJJ
=
16ddLL
16ff
16ff
16ee
16gg
16eeJJ
=
8cc'L
16ffL
16ee
16ff
16ddJJ
!!linebreak:original
=
16bLL
16dd
16dd
16cc
16gg
16eeJJ
=
8cc'L
16ggL
16ee
16gg
16eeJJ
=
16eeLL
16dd
16ff
16ee
16dd
16ccJJ
=
16ccLL
16b
16cc
16dd
16ee
16ffJJ
=
16ggLL
16aa
16gg
16ff
16ee
16ddJJ
=
16ffLL
16ee
16dd
16ee
16cc
16ddJJ
!!linebreak:original
=
16eeLL
16ff
16ff
16ee
16dd
16ccJJ
=
16ddLL
16ee
16ff
16ggJ
8ccc'J
=||
8ggL
8ee
8ccJ
=
8.ddL
16ddK
[8eetJ
=
4.ee_
=
8eeL]
16ccL
16ddJ
[8eeJ
=
8eeL]
16ccL
16dd
16ee
16ffJJ
=
16ggLL
16aa
16gg
16eeJ
[8ffTJ
=
4.ff_
!!linebreak:original
=
8ffL]
16ffL
16ee
16ff
16ddJJ
=
8.ddL
16ddL
16ee
16ccJJ
=
8.ddL
16ddK
[8eetJ
=
4.ee_
=
8eeL]
16ggL
16ee
16ff
16eeJJ
=
16ffLL
16dd
16ee
16cc
16dd
16bJJ
=
8.ccL
16ccK
[8ddTJ
=
4.dd]
=
8.ffL
16ddK
8eeJ
!!linebreak:original
=
16eeLL
16b
16cc
16dd
16ee
16ffJJ
=
16ddLL
16cc
16b
16ddJ
[8ccTJ
=
4.cc]
=
8.ffL
16ddK
[8eeJ
=
16eeLL]
16cc
16cc
16ff
16dd
16bJJ
=
8.ccL
16ccK
[8ddTJ
=
4.dd]
=
8.ffL
16ddK
[8eeJ
!!linebreak:original
=
16eeLL]
16cc
16dd
16ee
16ff
16ggJJ
=
16ddLL
16cc
16b
16ddJ
8ccTJ
=
4cc
8r
==
*-
